X:1
T:Dogwood Dulcimer Association Fall Festival - 2006
M:4/4
L:1/4
K:D
P:CLINCH 3X; LIGHT 2X; FLY 2X; LIGHT 1X
|:"D""^CLINCH 3X"d B A F|E/2F/2 E D z|d B A F|"A"A3 z
|"D"d B A F|E/2F/2 E D D/2E/2|F F "A"E/2F/2 E|"D"D4:||
|:"D"D D/2E/2 F/2D/2D/2E/2|F A F E|D D/2E/2 F/2E/2 D|z "C"!emphasis!=C !emphasis!=C z
|"D"D D/2E/2 F/2E/2D/2E/2|F A F E|F F "A"E/2F/2 E|"D"D4:||
M:4/4
L:1/4
K:D
|"^LIGHT 2X now; 1X later"A,|:"D""^VERSES"A, A,2 B,|D2 D D|A, A,2 B,|D4|"G"E D2 B,
